!!!OTL: "Treue" BEI UNS IN TYROL
!!!ARE: Europa, Mitteleuropa, Tirol
!!!SCT: Z1244
!!!YEM: Copyright 1995, estate of Helmut Schaffrath.
**kern
*ICvox
*Ivox
*M3/4
*k[f#]
*G:
{8g
8a
=1
4b
4b
4b
=2
4cc
8cc
8b
8cc
8ee
=3
8dd
8b
4gg
4r
=4
2r}
{8g
8a
=5
4b
4b
4b
=6
4cc
8cc
8b
8cc
8ee
=7
2dd
4r
=8
2r}
{8g
8a
=9
4b
4b
4b
=10
8dd
8cc
8cc
8b
8cc
8ee
=11
8dd
8b
4gg
4r
=12
2r}
{8g
8a
=13
4b
4b
4b
=14
8dd
8cc
8b
8a
8g
8f#
=15
2g
4r
=16
2r}
{4dd
=17
4.dd
8dd
4dd
=18
4dd
4dd
4cc
=19
4b
4a
4r
=20
2r}
{4dd
=21
4.dd
8dd
4dd
=22
4dd
8dd
8ee
8dd
8cc
=23
2b
4r
=24
2r}
{8g
8a
=25
4b
4b
4b
=26
8dd
8cc
8cc
8b
8cc
8ee
=27
8dd
8b
4gg
4r
=28
2r}
{8g
8a
=29
4b
4b
4b
=30
8dd
8cc
8b
8a
8g
8f#
=31
2g}
==
!!!AGN: Liebes - Lied
!!!ONB: ESAC (Essen Associative Code) Database: ZUCCAL
!!!AMT: simple triple
!!!AIN: vox
!!!EED: Helmut Schaffrath
!!!EEV: 1.0
*-
